X: 141
T: Laner Velivsamim
C: Avihu Medina 1976
O: Israel 
M:4/4
L:1/8
Q:1/4=132
K:Gm
 GA                 |"Gm" B3 B BAGA     | B6 GA              | B3 B "Cm" c2 B2|"D" A6 AB|\ 
 "Cm" c3 c "Gm" cBAB|"Cm" c6 Bc         |"Gm"  d3 c B2 A2    | B6 GA          |
 B3 B BAGA          | B6 GA             | B3 B "Cm" c2 B2    |"D" A6 AB       |\ 
 "Cm" c3 c "Gm" cBAB|"Cm" c6 Bc         |"Gm" d3 c B2 A2     | B8             |
 "Gm" d3 d dc B2    | d3 d dc B2        | d3 c "Eb" e2 d2    |"Cm" c8         |\
 c3 c c"Dm"B A2     |"Cm" c3 c cB A2    | c3 B "Gm" d2 c2    |BcBc d4         |
 "Gm" d3 d dc B2    | d3 d dc B2        | d3 c "Eb" e2 d2    |"Cm" c8         |\
 c3 c c"Dm"B A2     |"Cm" c3 c c"D" B A2|"Cm" B3 B "D" AG ^F2|"Gm" G8         |



